X:155
T: Deirdre Collis'
S: IRTRAD post
R: Reel
M: 4/4
L: 1/8
K: G
GB~B2 dB~B2 | cdec dBGB | c3 e dB~B2 | AcBG AGED |
GB~B2 dB~B2 | cdec dBGB | c3e dBGB | ADFA G4 :|
dggf gdBd | d2BG AGEG | dggf gdBd | eaag agef |
g2dg Bgdg | c2Bc AGEG | c3e dBGB | ADFA G4 :|
